!!!COA:	Josquin des Prez
!!!CDT:	~1450-1521/08/27
!!!COM: Appenzeller
!!!OTL@@FRE: Cueurs desolez
!!!AGN:	Chanson
!!!SCT:	NJE 28.8
!!!SCA:	New Josquin Edition 28.8
!!!voices:	4
**kern	**kern	**kern	**kern
*staff4	*staff3	*staff2	*staff1
*Ivox	*Ivox	*Ivox	*Ivox
*I"Bassus	*I"Tenor	*I"Altus	*I"Superius
*I'B	*I'T	*I'A	*I'S
*clefF4	*clefGv2	*clefGv2	*clefG2
*k[]	*k[]	*k[]	*k[]
*M2/1	*M2/1	*M2/1	*M2/1
*met(C|)	*met(C|)	*met(C|)	*met(C|)
=1-	=1-	=1-	=1-
0r	0r	0B	0r
=2	=2	=2	=2
0r	0r	1c	0r
.	.	1c	.
=3	=3	=3	=3
0r	0E	1B	0r
.	.	2r	.
.	.	2G/	.
=4	=4	=4	=4
0r	1F	1A	0r
.	1F	1A	.
=5	=5	=5	=5
0r	1E	4G/	0e
.	.	4F/	.
.	.	4E/	.
.	.	4D/	.
.	2r	2C/	.
.	2G/	2E/	.
=6	=6	=6	=6
0r	1A	0D	1f
.	1A	.	1f
=7	=7	=7	=7
0E	0G	2.B\	1e
.	.	4A/	.
.	.	2B\	2r
.	.	[2c\	2g/
=8	=8	=8	=8
1F	1.c	4c\]	1a
.	.	4A/	.
.	.	2.A/	.
1F	.	.	1a
.	.	4B\	.
.	2A/	4c\	.
.	.	4d\	.
=9	=9	=9	=9
1E	2B\	0e	1g
.	2c\	.	.
2r	1B	.	1g
2E\	.	.	.
=10	=10	=10	=10
1.A	1A	2r	1.cc
.	.	2e\	.
.	1r	2e\	.
2G\	.	2e\	2b\
=11	=11	=11	=11
1F	0r	2f\	1a
.	.	2.e\	.
1F	.	.	1a
.	.	4c\	.
.	.	2d\	.
=12	=12	=12	=12
0E	0B	[0e	[0g
=13	=13	=13	=13
2r	1c	0e]	0g]
2C/	.	.	.
2C/	1c	.	.
2C/	.	.	.
=14	=14	=14	=14
1.G	1B	0E	0r
.	2r	.	.
4F\	2G/	.	.
4E\	.	.	.
=15	=15	=15	=15
0D	1A	1F	0r
.	1A	1F	.
=16	=16	=16	=16
0r	4G/	1E	0e
.	4F/	.	.
.	4E/	.	.
.	4D/	.	.
.	2C/	2r	.
.	2E/	2G/	.
=17	=17	=17	=17
0r	0D	1A	1f
.	.	1A	1f
=18	=18	=18	=18
0E	1r	2.G/	1e
.	.	4A/	.
.	1G	2B\	2r
.	.	[2c\	2g/
=19	=19	=19	=19
1F	1.c	4c\]	1a
.	.	4A/	.
.	.	2.A/	.
1F	.	.	1a
.	.	4B\	.
.	2A/	4c\	.
.	.	4d\	.
=20	=20	=20	=20
1E	2B\	0e	1g
.	2c\	.	.
2r	1B	.	1g
2E\	.	.	.
=21	=21	=21	=21
1.A	1A	2r	1.cc
.	.	2e\	.
.	2r	2e\	.
2G\	2B\	2e\	2b\
=22	=22	=22	=22
1F	1.c	2f\	1.a
.	.	2.e\	.
1F	.	.	.
.	.	4c\	.
.	2A/	2d\	4g/
.	.	.	4f/
=23	=23	=23	=23
0E	2B\	0e	2g/
.	2c\	.	1a
.	1B	.	.
.	.	.	2g#i/
=24	=24	=24	=24
0AA	1A	2r	0a
.	.	2E/	.
.	2r	2E/	.
.	2A/	2E/	.
=25	=25	=25	=25
1.D	2A/	1.F	0r
.	2A/	.	.
.	2B\	.	.
2C/	[2A/	2E/	.
=26	=26	=26	=26
1BB	2A/]	2E/	1r
.	4G#i/	4D/	.
.	4F#i/	4C/	.
1BB	2.G#i/	1D	1b
.	4F#i/	.	.
=27	=27	=27	=27
1AA	1A	2E/	2.cc\
.	.	2e\	.
.	.	.	4b\
1r	1r	2.f\	2a/
.	.	.	2g/
.	.	4e\	.
=28	=28	=28	=28
0r	0r	2d\	2f/
.	.	2c\	2e/
.	.	2B\	4d/
.	.	.	4e/
.	.	[2A/	4f/
.	.	.	4e/
=29	=29	=29	=29
0r	1r	4A/]	4f/
.	.	4G/	4g/
.	.	2c\	1a
.	1E	1B	.
.	.	.	2g#i/
=30	=30	=30	=30
1AA	2.c\	1A	1a
.	4B\	.	.
2.F\	2A/	1r	1r
.	2G/	.	.
4E\	.	.	.
=31	=31	=31	=31
2D\	2F/	0r	0r
2C/	2E/	.	.
2BB/	4D/	.	.
.	4E/	.	.
[2AA/	4F/	.	.
.	4E/	.	.
=32	=32	=32	=32
4AA/]	4F/	0r	0r
4GG/	4G/	.	.
2C/	1A	.	.
1BB	.	.	.
.	2G/	.	.
=33	=33	=33	=33
1AA	4A/	2r	0r
.	4G/	.	.
.	4F/	2A/	.
.	4E/	.	.
2r	2F/	2A/	.
2AA/	2E/	2A/	.
=34	=34	=34	=34
2AA/	2r	4A/	1r
.	.	4G/	.
2AA/	2E/	4A/	.
.	.	4B\	.
4AA/	2E/	2c\	2r
4GG/	.	.	.
4AA/	2E/	4B\	2e/
4BB/	.	4A/	.
=35	=35	=35	=35
0C	4E/	1G	2e/
.	4D/	.	.
.	4E/	.	2e/
.	4F/	.	.
.	2G/	1r	4e/
.	.	.	4d/
.	2G/	.	4e/
.	.	.	4f/
=36	=36	=36	=36
0r	1c	0r	2g/
.	.	.	2a/
.	2B\	.	2g/
.	[2A/	.	[2f/
=37	=37	=37	=37
0r	4A/]	1r	4f/]
.	4G/	.	4e/
.	4F/	.	1e
.	4E/	.	.
.	1F	1A	.
.	.	.	2d/
=38	=38	=38	=38
1AA	0E	2A/	[0e
.	.	2A/	.
2AA/	.	4A/	.
.	.	4G/	.
2AA/	.	4A/	.
.	.	4B\	.
=39	=39	=39	=39
4AA/	1r	2c\	0e]
4GG/	.	.	.
4AA/	.	4B\	.
4BB/	.	4A/	.
2C/	2r	2G/	.
2C/	2G/	2c\	.
=40	=40	=40	=40
1F	1A	1d	0r
2E\	2G/	2c\	.
[2D\	[2F/	[2B\	.
=41	=41	=41	=41
4D\]	2F/]	2B\]	0r
4C/	.	.	.
4BB/	1E	1A	.
4AA/	.	.	.
1BB	.	.	.
.	2D/	2G#i/	.
=42	=42	=42	=42
2AA/	1E	2A/	2r
2AA/	.	2A/	2c/
2D\	1r	2A/	2f/
2D\	.	2B\	2f/
=43	=43	=43	=43
0C	1r	2c\	4e/
.	.	.	4d/
.	.	4B\	4e/
.	.	4A/	4f/
.	1C	2G/	2g/
.	.	2e\	4r
.	.	.	4g/
=44	=44	=44	=44
0r	2F/	2c\	2a/
.	2F/	2d\	2a/
.	4E/	2.e\	4g/
.	4D/	.	4f/
.	4E/	.	4g/
.	4F/	4e\	4a/
=45	=45	=45	=45
2r	2G/	1e	2b\
2C/	4r	.	1cc
.	4G/	.	.
2F\	2A/	2r	.
2F\	2A/	2c\	4b\
.	.	.	4a/
=46	=46	=46	=46
4E\	4G/	2e\	0b
4D\	4F/	.	.
4E\	4G/	2e\	.
4F\	4A/	.	.
2G\	2B\	1d	.
2G\	2G/	.	.
=47	=47	=47	=47
2.A\	1c	2r	2r
.	.	2A/	2e/
4G\	.	.	.
2F\	1A	2c\	2a/
2F\	.	2d\	2a/
=48	=48	=48	=48
[0E	2B\	1.e	2.g/
.	2c\	.	.
.	.	.	4a/
.	2B\	.	2b\
.	[2e\	2e\	2cc\
=49	=49	=49	=49
0E]	2e\]	0e	2b\
.	4d\	.	1a
.	4c\	.	.
.	1B	.	.
.	.	.	2g#i/
=50	=50	=50	=50
2r	0r	2r	2a/
2AA/	.	2c\	2e/
2D\	.	2A/	2f/
2D\	.	2B\	2f/
=51	=51	=51	=51
0C	1r	2.c\	1e
.	.	8B/L	.
.	.	8A/J	.
.	1E	2G/	2r
.	.	2e\	2g/
=52	=52	=52	=52
0r	2F/	2c\	2a/
.	2F/	2d\	2a/
.	4E/	2.e\	4g/
.	4D/	.	4f/
.	4E/	.	4g/
.	4F/	4e\	4a/
=53	=53	=53	=53
1E	2G/	1e	2b\
.	4r	.	1cc
.	4G/	.	.
2F\	2A/	2r	.
2F\	2A/	2c\	4b\
.	.	.	4a/
=54	=54	=54	=54
4E\	4G/	2e\	0b
4D\	4F/	.	.
4E\	4G/	2e\	.
4F\	4A/	.	.
2G\	2B\	1d	.
2G\	2G/	.	.
=55	=55	=55	=55
2.A\	2.c\	2r	2r
.	.	2A/	2e/
4G\	4B\	.	.
2F\	2c\	1A	2a/
2F\	2d\	.	2a/
=56	=56	=56	=56
1E	2e\	1c	2.g/
.	2E/	.	.
.	.	.	4a/
2r	2G/	2B\	2b\
2C/	2A/	2e\	2cc\
=57	=57	=57	=57
2G\	2B\	2e\	2b\
2A\	2c\	2f\	1a
2E\	1B	2.e\	.
2E\	.	.	2g#i/
.	.	4d\	.
=58	=58	=58	=58
1AA	[0Al	1c	[0al
2r	.	2r	.
2AA/	.	2c\	.
=59	=59	=59	=59
2.D\	0A_	2.f\	0a_
4C/	.	4e\	.
2D\	.	2d\	.
2D\	.	2d\	.
=60	=60	=60	=60
0AAl	0A]	0cl	0a]
==	==	==	==
*-	*-	*-	*-
!!!RDF**kern: l=long note in original notation
!!!RDF**kern: i=editorial accidental
!!!ENC:	Will Watson 23/10/11
!!!END:	2011/10/11/
!!!EED:	Jesse Rodin
!!!EEV:	2011/12/16/
!!attribution-level@Jos: 3 (tricky)
!!!ONB:	Translated from MusicXML and edited on 2011/12/16/ by Craig Sapp
!!muse2ps: C^@{COA}?\n@{SCT}^i2I150v90,90,90,150Q16
